X: 51
T: Credo cardinale
C: Gaspar van Weerbeke
%%abc-version 2.0
%%abcx-abcm2ps-target-version 5.9.1 (29 Sep 2008)
%%abc-creator hum2abc beta
%%abcx-conversion-date 2022/03/06 13:06:00
%%abc-copyright Copyright 2016 Kolb, Paul
%%abc-edited-by Sapp, Craig Stuart
%%humdrum-veritas 1562968164
%%humdrum-veritas-data 575735891
%%linebreak <none>
%%barnumbers 0
L: 1/4
M: 2/2
N: Derived from Gas0206-Credo_cardinale.krn
Q: 1/2=88
%%staves [1 2 3 4]
V: 1 clef=treble
V: 2 clef=treble-8
V: 3 clef=treble-8
V: 4 clef=bass
K: C
[V:1] z4 | 
[V:2] z4 | 
[V:3] A4 | 
[V:4] z4 | 
[V:1] z4 | 
[V:2] z4 | 
[V:3] D4 | 
[V:4] A,4 | 
[V:1] z4 | 
[V:2] d4 | 
[V:3] A4 | 
[V:4] D,4- | 
[V:1] A4 | 
[V:2] A4 | 
[V:3] F2D2 | 
[V:4] D,4 | 
[V:1] D4 | 
[V:2] f>ed_B | 
[V:3] F2G2 | 
[V:4] _B,,4 | 
[V:1] A4 | 
[V:2] c4 | 
[V:3] E4 | 
[V:4] A,,4 | 
[V:1] G2F2 | 
[V:2] e2d2 | 
[V:3] E2F2 | 
[V:4] C,2D,2 | 
[V:1] E2D2 | 
[V:2] BcA3/B/ | 
[V:3] GEFE/D/ | 
[V:4] E,C,D,2 | 
[V:1] ED2^C | 
[V:2] cGA2- | 
[V:3] CDE2 | 
[V:4] A,,_B,,A,,2 | 
[V:1] D4 | 
[V:2] A2F2 | 
[V:3] D4 | 
[V:4] z2A,3/B,/ | 
[V:1] E4 | 
[V:2] G2c2 | 
[V:3] C3D | 
[V:4] CB,/A,/G,E,- | 
[V:1] G4 | 
[V:2] B>cd2 | 
[V:3] E2D2 | 
[V:4] E,D,/C,/B,,2 | 
[V:1] A4 | 
[V:2] c>BA2 | 
[V:3] E3F | 
[V:4] A,,>B,,C,D, | 
[V:1] B4 | 
[V:2] zdg3/f/ | 
[V:3] G>A B/c/d | 
[V:4] G,,2zG, | 
[V:1] c2B2 | 
[V:2] efd3/e/ | 
[V:3] cAGd- | 
[V:4] A,F,G,2 | 
[V:1] A2BA- | 
[V:2] f2ze | 
[V:3] dcBc | 
[V:4] zF,G,A, | 
[V:1] A^G/^F/G2 | 
[V:2] fde2 | 
[V:3] dAB2 | 
[V:4] F,2E,2 | 
[V:1] A4- | 
[V:2] c>def- | 
[V:3] A4 | 
[V:4] F,>E, D,/C,/D,- | 
[V:1] A4 | 
[V:2] fga2 | 
[V:3] z2D2 | 
[V:4] D,E,F,2 | 
[V:1] B2c2 | 
[V:2] g>fe2 | 
[V:3] G2A2 | 
[V:4] z4 | 
[V:1] d2c2 | 
[V:2] d2zA | 
[V:3] D>EF2 | 
[V:4] G,,2A,,2 | 
[V:1] B4 | 
[V:2] B>cd3/c/ | 
[V:3] G>FD2 | 
[V:4] G,,>A,, B,,/C,/D, | 
[V:1] B2A2 | 
[V:2] Be2d | 
[V:3] GEA2 | 
[V:4] E,G,F,2 | 
[V:1] G4 | 
[V:2] e4 | 
[V:3] B3c | 
[V:4] E,3G,- | 
[V:1] B4 | 
[V:2] z2f2 | 
[V:3] d4 | 
[V:4] G,F,/E,/D,2 | 
[V:1] c4 | 
[V:2] g2eg- | 
[V:3] e3c | 
[V:4] C,4 | 
[V:1] B2A2 | 
[V:2] gf/e/fe | 
[V:3] d3c | 
[V:4] G,,2zA,, | 
[V:1] BA2^G | 
[V:2] ge3 | 
[V:3] dAB2 | 
[V:4] G,,A,,E,2 | 
[V:1] A4- | 
[V:2] c2e2- | 
[V:3] A4 | 
[V:4] A,,4 | 
[V:1] A4- | 
[V:2] e2A2- | 
[V:3] c4 | 
[V:4] A,4 | 
[V:1] A4 | 
[V:2] A2d2 | 
[V:3] d2A2 | 
[V:4] D,4 | 
[V:1] z4 | 
[V:2] e2d2 | 
[V:3] B4 | 
[V:4] G,4 | 
[V:1] A4 | 
[V:2] c3/d//e//f2 | 
[V:3] A2D2 | 
[V:4] A,4 | 
[V:1] D2G2 | 
[V:2] dg2e- | 
[V:3] G2E2 | 
[V:4] G,4 | 
[V:1] A2G2- | 
[V:2] ede2- | 
[V:3] z2G3/A/ | 
[V:4] F,2E,2 | 
[V:1] G2F2 | 
[V:2] e2d2 | 
[V:3] BcA2 | 
[V:4] zC,D,2 | 
[V:1] E2D2 | 
[V:2] ecA2 | 
[V:3] EGF2 | 
[V:4] C,2D,2 | 
[V:1] C4 | 
[V:2] A2c2 | 
[V:3] E2A2- | 
[V:4] A,,4 | 
[V:1] D2E2- | 
[V:2] de>dc/B/ | 
[V:3] A2G2 | 
[V:4] D,A,,C,2 | 
[V:1] ED/C/D2 | 
[V:2] A3B | 
[V:3] F4 | 
[V:4] D,4 | 
[V:1] E4 | 
[V:2] c3e- | 
[V:3] E2E2 | 
[V:4] A,,4 | 
[V:1] z4 | 
[V:2] ed/c/B2 | 
[V:3] G4 | 
[V:4] E,4 | 
[V:1] E4 | 
[V:2] Ac2B/A/ | 
[V:3] A4 | 
[V:4] A,,4 | 
[V:1] G4 | 
[V:2] GEG2- | 
[V:3] B4 | 
[V:4] E,D,/C,/B,,2 | 
[V:1] A4 | 
[V:2] GE^F2 | 
[V:3] c4 | 
[V:4] A,,4 | 
[V:1] B4 | 
[V:2] G2zg- | 
[V:3] B>cde- | 
[V:4] G,,G,>F,E,/D,/ | 
[V:1] c4 | 
[V:2] g^f/e/^f2 | 
[V:3] e/ d/c/B/A2 | 
[V:4] C,2z2 | 
[V:1] B2AB- | 
[V:2] g2f/e/d/c/ | 
[V:3] G2d2- | 
[V:4] E,2F,G,- | 
[V:1] BA2^G | 
[V:2] Be3 | 
[V:3] dcB2 | 
[V:4] G,A,E,2 | 
[V:1] A4 | 
[V:2] c4 | 
[V:3] A4 | 
[V:4] F,3E,/D,/ | 
[V:1] z4 | 
[V:2] e2f2 | 
[V:3] z4 | 
[V:4] C,2D,2 | 
[V:1] z4 | 
[V:2] g4 | 
[V:3] B2c2 | 
[V:4] G,,2C,2- | 
[V:1] z4 | 
[V:2] f4 | 
[V:3] d4 | 
[V:4] C,2B,,2 | 
[V:1] z4 | 
[V:2] e>fga- | 
[V:3] c4 | 
[V:4] C,>D,E,F,- | 
[V:1] z4 | 
[V:2] ag/f/ g/f/e/d/ | 
[V:3] B4 | 
[V:4] F,E,/D,/E,2 | 
[V:1] z4 | 
[V:2] c4 | 
[V:3] A4 | 
[V:4] F,4 | 
[V:1] A4 | 
[V:2] d2d2 | 
[V:3] D2F2 | 
[V:4] F,2D,2 | 
[V:1] D4 | 
[V:2] B>GAB | 
[V:3] G2FG | 
[V:4] z4 | 
[V:1] A4 | 
[V:2] A>B c/d/e- | 
[V:3] F>G A/B/c- | 
[V:4] D,2A,,3/B,,/ | 
[V:1] G2A2 | 
[V:2] e/ f/gc3/d/ | 
[V:3] cBAc- | 
[V:4] C,/D,/E,F,2 | 
[V:1] G2F2 | 
[V:2] e2A2 | 
[V:3] c/ B/cd2 | 
[V:4] E,2D,2 | 
[V:1] E4- | 
[V:2] A4 | 
[V:3] c4 | 
[V:4] A,,4- | 
[V:1] E4 | 
[V:2] A4 | 
[V:3] c3B/A/ | 
[V:4] A,,4 | 
[V:1] z4 | 
[V:2] G2B2 | 
[V:3] B2G2 | 
[V:4] z4 | 
[V:1] z4 | 
[V:2] d4 | 
[V:3] A3B | 
[V:4] D,4 | 
[V:1] z4 | 
[V:2] e3d/c/ | 
[V:3] c3B | 
[V:4] C,2E,2 | 
[V:1] D4 | 
[V:2] B4 | 
[V:3] G2B2 | 
[V:4] G,4 | 
[V:1] C2E2 | 
[V:2] ABcd | 
[V:3] c3A | 
[V:4] A,3G, | 
[V:1] G4 | 
[V:2] e4 | 
[V:3] B2B2 | 
[V:4] E,4 | 
[V:1] A4 | 
[V:2] c2f2- | 
[V:3] A4 | 
[V:4] F,3E, | 
[V:1] B4 | 
[V:2] fed2 | 
[V:3] d4 | 
[V:4] D,C,B,,2 | 
[V:1] c2B2 | 
[V:2] c/d/e/f/g2 | 
[V:3] e2d2 | 
[V:4] A,,C,G,,2 | 
[V:1] A2^G2 | 
[V:2] e2e2 | 
[V:3] c2B2 | 
[V:4] A,,2E,2 | 
[V:1] A4 | 
[V:2] e4- | 
[V:3] A3G/F/ | 
[V:4] A,,4 | 
[V:1] G2F2 | 
[V:2] e2d2 | 
[V:3] E2FA- | 
[V:4] C,2D,2 | 
[V:1] E2D2 | 
[V:2] cB/A/B2 | 
[V:3] A/ G/E/F/G2 | 
[V:4] A,,C,G,,2 | 
[V:1] C4- | 
[V:2] c3e- | 
[V:3] C3D | 
[V:4] A,,4- | 
[V:1] C4 | 
[V:2] e/ d/c2B/A/ | 
[V:3] E4 | 
[V:4] A,,4 | 
[V:1] E4 | 
[V:2] G2c2- | 
[V:3] z2G2 | 
[V:4] C,4 | 
[V:1] F2E2 | 
[V:2] c4 | 
[V:3] A2G2 | 
[V:4] F,2C,2 | 
[V:1] DE2D | 
[V:2] Bc>BA- | 
[V:3] FG2F | 
[V:4] D,C,2D, | 
[V:1] ^CB,C2 | 
[V:2] AGA2 | 
[V:3] EDE2 | 
[V:4] A,,B,,A,,2 | 
[V:1] D4- | 
[V:2] F3D | 
[V:3] D4- | 
[V:4] A,4 | 
[V:1] D4 | 
[V:2] F>GA3/B/ | 
[V:3] D4 | 
[V:4] z2D,2 | 
[V:1] z4 | 
[V:2] c/d/ef3/e/ | 
[V:3] z4 | 
[V:4] C,2D,2 | 
[V:1] z4 | 
[V:2] cd2^c | 
[V:3] A2G2 | 
[V:4] F,2E,2 | 
[V:1] A2G2 | 
[V:2] d4 | 
[V:3] A2B2 | 
[V:4] D,2B,,2 | 
[V:1] A2B2 | 
[V:2] e4 | 
[V:3] c2G2 | 
[V:4] A,,2E,2 | 
[V:1] c4 | 
[V:2] c>d e/f/e- | 
[V:3] A4 | 
[V:4] A,,4 | 
[V:1] A2G2 | 
[V:2] ed/c/ g/f/e/d/ | 
[V:3] c2B2 | 
[V:4] z2E,2 | 
[V:1] A2A2 | 
[V:2] cf2d- | 
[V:3] A>GF2 | 
[V:4] F,2D,2 | 
[V:1] G2F2 | 
[V:2] d^cd2- | 
[V:3] E2D2 | 
[V:4] G,2A,2 | 
[V:1] E4 | 
[V:2] dB^c2 | 
[V:3] A4 | 
[V:4] A,,4 | 
[V:1] D4 | 
[V:2] d4 | 
[V:3] _B4 | 
[V:4] z2G,,2 | 
[V:1] C2E2- | 
[V:2] z2c2 | 
[V:3] A2G2 | 
[V:4] A,,>B,,C,2 | 
[V:1] ED/C/D2 | 
[V:2] A3B | 
[V:3] F4 | 
[V:4] D,4 | 
[V:1] E4- | 
[V:2] c4- | 
[V:3] E4- | 
[V:4] A,,4- | 
[V:1] E4 | 
[V:2] c2c3/d/ | 
[V:3] E4- | 
[V:4] A,,4 | 
[V:1] E4 | 
[V:2] e/f/g2e- | 
[V:3] E4 | 
[V:4] C,3D, | 
[V:1] G4 | 
[V:2] ed/c/B2 | 
[V:3] z2E2 | 
[V:4] E,4 | 
[V:1] A4 | 
[V:2] A4 | 
[V:3] F>G A/B/c- | 
[V:4] z2F,3/G,/ | 
[V:1] A2D2 | 
[V:2] z4 | 
[V:3] cd_B2 | 
[V:4] A,D,G,2 | 
[V:1] F4 | 
[V:2] z2A2- | 
[V:3] A2d2- | 
[V:4] D,4 | 
[V:1] E4 | 
[V:2] A2A2 | 
[V:3] d2^c2 | 
[V:4] A,,4 | 
[V:1] D4 | 
[V:2] _B3A/G/ | 
[V:3] d4 | 
[V:4] z4 | 
[V:1] z4 | 
[V:2] F2G2 | 
[V:3] z4 | 
[V:4] A,,2G,,2 | 
[V:1] z4 | 
[V:2] zE2D | 
[V:3] A2G2 | 
[V:4] A,,2B,,2 | 
[V:1] A2G2 | 
[V:2] Ee2d | 
[V:3] A2B2 | 
[V:4] C,2B,,2 | 
[V:1] A2B2 | 
[V:2] ea2^g | 
[V:3] c2B2 | 
[V:4] A,,2E,2 | 
[V:1] c2B2 | 
[V:2] ae3 | 
[V:3] A2E2 | 
[V:4] zA,2^G, | 
[V:1] A4 | 
[V:2] c2df- | 
[V:3] F>E D/C/D | 
[V:4] A,F,>E,D,/C,/ | 
[V:1] A4 | 
[V:2] fe/d/c2 | 
[V:3] F2E2 | 
[V:4] D,C,/B,,/A,,2 | 
[V:1] A2A2 | 
[V:2] c2c2 | 
[V:3] E3A- | 
[V:4] A,,2A,,2 | 
[V:1] A4 | 
[V:2] c4 | 
[V:3] A/ G/^F/E/^F2 | 
[V:4] A,,4 | 
[V:1] D4 | 
[V:2] B4 | 
[V:3] G>FD2 | 
[V:4] G,,4 | 
[V:1] E4 | 
[V:2] c>B A/G/A- | 
[V:3] C2c2 | 
[V:4] z4 | 
[V:1] F4 | 
[V:2] A/ G/F/E/D2 | 
[V:3] A4 | 
[V:4] z4 | 
[V:1] G4 | 
[V:2] d>cde- | 
[V:3] G4 | 
[V:4] G,,>A,,B,,C,- | 
[V:1] G2A2 | 
[V:2] e/ B/cd3/f/ | 
[V:3] E2D2 | 
[V:4] C,/ D,/E,F,2 | 
[V:1] G2F2 | 
[V:2] e2d2 | 
[V:3] G2zA- | 
[V:4] C,2D,2 | 
[V:1] E2D2 | 
[V:2] c>B A/G/F | 
[V:3] A2FD | 
[V:4] A,,2zD, | 
[V:1] ED2^C/B,/ | 
[V:2] EFG2 | 
[V:3] GFD2 | 
[V:4] C,D,_B,,2 | 
[V:1] ^CD2C | 
[V:2] A4 | 
[V:3] E4 | 
[V:4] A,,4 | 
[V:1] D4 ||  
[V:2] A4 ||  
[V:3] D4 ||  
[V:4] D,4 ||  
[V:1] [M:2/2]z4 | 
[V:2] [M:2/2]d4 | 
[V:3] [M:2/2]D4 | 
[V:4] [M:2/2]z4 | 
[V:1] z4 | 
[V:2] c2d2 | 
[V:3] E2F2 | 
[V:4] z4 | 
[V:1] d4 | 
[V:2] B2B2 | 
[V:3] G2G2 | 
[V:4] G,,4 | 
[V:1] c2d2 | 
[V:2] A2d2 | 
[V:3] E2D2 | 
[V:4] A,,2B,,2 | 
[V:1] c2B2 | 
[V:2] ecd2 | 
[V:3] G3F | 
[V:4] C,2G,,2 | 
[V:1] !fermata!A4 | 
[V:2] !fermata!c4 | 
[V:3] !fermata!E4 | 
[V:4] !fermata!A,,4 | 
[V:1] A2c2 | 
[V:2] c2c2 | 
[V:3] E2E2 | 
[V:4] A,,2A,,2 | 
[V:1] B2A2 | 
[V:2] d2f2 | 
[V:3] G2F2 | 
[V:4] G,,2D,2 | 
[V:1] c4 | 
[V:2] e4 | 
[V:3] A4 | 
[V:4] A,,4 | 
[V:1] !fermata!d4 | 
[V:2] !fermata!d4 | 
[V:3] !fermata!A4 | 
[V:4] !fermata!D,4 | 
[V:1] c2B2 | 
[V:2] e2g2 | 
[V:3] A2D2 | 
[V:4] A,,2G,,2 | 
[V:1] A4 | 
[V:2] f2d2 | 
[V:3] F2A2 | 
[V:4] D,2F,2 | 
[V:1] G4 | 
[V:2] e4 | 
[V:3] B2c2 | 
[V:4] E,4 | 
[V:1] F2A2 | 
[V:2] A2A2 | 
[V:3] d2c2 | 
[V:4] D,2F,2 | 
[V:1] !fermata!G4 | 
[V:2] !fermata!e4 | 
[V:3] !fermata!c4 | 
[V:4] !fermata!C,4 | 
[V:1] A4 | 
[V:2] f4 | 
[V:3] c4 | 
[V:4] F,4 | 
[V:1] G2A2 | 
[V:2] e2f2 | 
[V:3] c2c2 | 
[V:4] C,2F,2 | 
[V:1] G2F2 | 
[V:2] e2d2 | 
[V:3] c2A2 | 
[V:4] C,2D,2 | 
[V:1] !fermata!E4- | 
[V:2] !fermata!c4- | 
[V:3] !fermata!A4- | 
[V:4] !fermata!A,,4- | 
[V:1] E4 | 
[V:2] c4 | 
[V:3] A4 | 
[V:4] A,,4 | 
[V:1] D4 | 
[V:2] f4 | 
[V:3] A4 | 
[V:4] D,4 | 
[V:1] C4 | 
[V:2] e4 | 
[V:3] A2E2 | 
[V:4] A,,2C,2 | 
[V:1] D2E2 | 
[V:2] d2c2 | 
[V:3] G2A2 | 
[V:4] _B,,2A,,2 | 
[V:1] F2D2 | 
[V:2] d4 | 
[V:3] FGAB | 
[V:4] D,4 | 
[V:1] E4 | 
[V:2] G4 | 
[V:3] c4 | 
[V:4] C,4 | 
[V:1] G2A2 | 
[V:2] e2e2 | 
[V:3] c2c2 | 
[V:4] C,2A,,2 | 
[V:1] B2c2 | 
[V:2] g2e3/f/ | 
[V:3] B2A2 | 
[V:4] G,,2A,,2 | 
[V:1] B2A2 | 
[V:2] g/f/e/d/cB/A/ | 
[V:3] G2A2 | 
[V:4] E,2F,2 | 
[V:1] BA2^G | 
[V:2] Ge3 | 
[V:3] dcB2 | 
[V:4] G,A,E,2 | 
[V:1] A4- | 
[V:2] c3d | 
[V:3] A4 | 
[V:4] F,4 | 
[V:1] A4 | 
[V:2] ef2e/d/ | 
[V:3] z4 | 
[V:4] z2A,2- | 
[V:1] z4 | 
[V:2] c2d2 | 
[V:3] A4 | 
[V:4] A,2D,2 | 
[V:1] z4 | 
[V:2] zdc/B/A/G/ | 
[V:3] D2E2 | 
[V:4] _B,,2A,,2 | 
[V:1] z4 | 
[V:2] Ad2e- | 
[V:3] F2G2 | 
[V:4] D,2G,,C,- | 
[V:1] z4 | 
[V:2] ec2B | 
[V:3] E2D2 | 
[V:4] C,/ B,,/C,G,,2 | 
[V:1] z4 | 
[V:2] c>BG2 | 
[V:3] C4 | 
[V:4] G,4 | 
[V:1] F2E2 | 
[V:2] F>G A/B/c | 
[V:3] D2C2 | 
[V:4] z4 | 
[V:1] F2D2 | 
[V:2] A2_B2 | 
[V:3] D2G2 | 
[V:4] z2G,,2 | 
[V:1] E3D | 
[V:2] Gc2_B | 
[V:3] G3F | 
[V:4] C,3D, | 
[V:1] ^CB,C2 | 
[V:2] AGA2 | 
[V:3] EDE2 | 
[V:4] A,,B,,A,,2 | 
[V:1] D4 | 
[V:2] F4 | 
[V:3] D4- | 
[V:4] z2A,2 | 
[V:1] z2A2 | 
[V:2] A2F3/G/ | 
[V:3] D4 | 
[V:4] F,>G,A,2 | 
[V:1] F>GAB | 
[V:2] A2D2 | 
[V:3] d4 | 
[V:4] D,>E,F,G, | 
[V:1] c3c- | 
[V:2] F/G/A/B<cd/ | 
[V:3] c2A2 | 
[V:4] A,F,2E,/D,/ | 
[V:1] c_B/A/G2 | 
[V:2] efgG | 
[V:3] c4 | 
[V:4] C,F,E,2 | 
[V:1] F2zF | 
[V:2] A3B | 
[V:3] d4 | 
[V:4] D,2zD, | 
[V:1] EF2E/D/ | 
[V:2] cF2G | 
[V:3] A2B2 | 
[V:4] C,D,2C,/B,,/ | 
[V:1] C/D/E/F<GF/ | 
[V:2] A2d2- | 
[V:3] c2B2 | 
[V:4] A,,2G,,3/A,,/ | 
[V:1] DF2E | 
[V:2] d2DE | 
[V:3] B2A2 | 
[V:4] B,,/C,/D,2C, | 
[V:1] DCD2 | 
[V:2] FE2D | 
[V:3] BA2^G | 
[V:4] D,A,,B,,2 | 
[V:1] C4 | 
[V:2] E2e2- | 
[V:3] A4 | 
[V:4] A,,4 | 
[V:1] G2A2 | 
[V:2] e2c3/d/ | 
[V:3] z4 | 
[V:4] E,2F,2 | 
[V:1] G2F2 | 
[V:2] ecdc- | 
[V:3] G2A2 | 
[V:4] C,E,D,F, | 
[V:1] E2D2 | 
[V:2] c/ d/eA2- | 
[V:3] G2F2 | 
[V:4] C,2D,2 | 
[V:1] ED2^C | 
[V:2] A2A2 | 
[V:3] E4 | 
[V:4] A,,4 | 
[V:1] D4- | 
[V:2] z4 | 
[V:3] D4- | 
[V:4] A,4 | 
[V:1] D4 | 
[V:2] A4 | 
[V:3] D4 | 
[V:4] F,2D,2 | 
[V:1] z4 | 
[V:2] B2c2 | 
[V:3] z2G2 | 
[V:4] G,2E,2 | 
[V:1] D4 | 
[V:2] d2B2 | 
[V:3] AFG2- | 
[V:4] D,2G,,2 | 
[V:1] E2F2 | 
[V:2] c2A2 | 
[V:3] GEDF | 
[V:4] C,2D,2 | 
[V:1] G4 | 
[V:2] G>ABc- | 
[V:3] C2z2 | 
[V:4] E,3C, | 
[V:1] G2F2 | 
[V:2] c/ B/cdf | 
[V:3] C2FD | 
[V:4] E,2D,2 | 
[V:1] G4 | 
[V:2] ed/c/B2 | 
[V:3] E>FGE | 
[V:4] C,>D,E,2 | 
[V:1] A4 | 
[V:2] A2e2 | 
[V:3] E4 | 
[V:4] A,,4 | 
[V:1] A4 | 
[V:2] c>ded- | 
[V:3] A>GEF | 
[V:4] A,,2C,D, | 
[V:1] B2c2 | 
[V:2] dBA2 | 
[V:3] DG2^F | 
[V:4] G,,2A,,2 | 
[V:1] B2A2 | 
[V:2] zg2^f | 
[V:3] G2A2 | 
[V:4] G,,2D,2 | 
[V:1] B4 | 
[V:2] g2de- | 
[V:3] G4 | 
[V:4] G,,>A,,B,,G,, | 
[V:1] G4 | 
[V:2] ed/c/B2 | 
[V:3] z2B2 | 
[V:4] C,>D,E,2 | 
[V:1] !fermata!A4- | 
[V:2] A3B | 
[V:3] c3A | 
[V:4] !fermata!A,,4- | 
[V:1] A4- | 
[V:2] !fermata!c4- | 
[V:3] A4 | 
[V:4] A,,4- | 
[V:1] A4 | 
[V:2] c4 | 
[V:3] !fermata!E4 | 
[V:4] A,,4 | 
[V:1] A3_B- | 
[V:2] f4 | 
[V:3] d4 | 
[V:4] z2D,2 | 
[V:1] B/ A/A2G | 
[V:2] f2d2 | 
[V:3] c2_B2 | 
[V:4] F,2G,2 | 
[V:1] A2D3/E/ | 
[V:2] d2B2 | 
[V:3] A2G2 | 
[V:4] D,2zG, | 
[V:1] F/G/AG/F/E/D/ | 
[V:2] dde2 | 
[V:3] F2G2 | 
[V:4] D,F,E,2 | 
[V:1] Cc2B- | 
[V:2] ze2e- | 
[V:3] A2G2 | 
[V:4] A,,>B,, C,/D,/E, | 
[V:1] BA2^G | 
[V:2] ede2 | 
[V:3] A2B2 | 
[V:4] F,2E,2 | 
[V:1] A4 | 
[V:2] z2c3/d/ | 
[V:3] A3G/F/ | 
[V:4] F,3E,/D,/ | 
[V:1] A4 | 
[V:2] eAc2 | 
[V:3] EF2E- | 
[V:4] C,D,A,,C, | 
[V:1] G2A2 | 
[V:2] dBc3/B/ | 
[V:3] EDE2 | 
[V:4] B,,2A,,2 | 
[V:1] G2F2 | 
[V:2] G2zF | 
[V:3] Cc2B | 
[V:4] E,2D,2 | 
[V:1] E4- | 
[V:2] GAGc- | 
[V:3] c4 | 
[V:4] C,4 | 
[V:1] E4 | 
[V:2] c/ d/e2d/c/ | 
[V:3] A4 | 
[V:4] z4 | 
[V:1] z4 | 
[V:2] B2G2 | 
[V:3] G2B2 | 
[V:4] E,4 | 
[V:1] D4 | 
[V:2] zF2G | 
[V:3] d4 | 
[V:4] D,4 | 
[V:1] C2E2 | 
[V:2] A2E2 | 
[V:3] e3d/c/ | 
[V:4] A,,>B,,C,3/D,/ | 
[V:1] G2A2- | 
[V:2] e>d c/B/A- | 
[V:3] B2Ac- | 
[V:4] E,2F,3/G,/ | 
[V:1] A^G/^F/G2 | 
[V:2] Afe2 | 
[V:3] cdB2 | 
[V:4] A,D,E,2 | 
[V:1] A4- | 
[V:2] c>d e/f/e | 
[V:3] A4 | 
[V:4] A,,>B,, C,/D,/C, | 
[V:1] A4 | 
[V:2] f>ecA | 
[V:3] z4 | 
[V:4] D,C,/B,,/A,,2 | 
[V:1] z4 | 
[V:2] c>d e/f/g | 
[V:3] A2G2 | 
[V:4] A,,>B,, C,/D,/E, | 
[V:1] z4 | 
[V:2] e>cd2 | 
[V:3] A2B2 | 
[V:4] C,A,,G,,2 | 
[V:1] z4 | 
[V:2] ce2d/c/ | 
[V:3] c4 | 
[V:4] z2A,,2 | 
[V:1] z4 | 
[V:2] d>e f/e/d/c/ | 
[V:3] B2A2 | 
[V:4] G,,/A,,/B,,/C,/D,2- | 
[V:1] z2E2 | 
[V:2] d/c/B/A/B2 | 
[V:3] BA2^G | 
[V:4] D,F,E,2 | 
[V:1] C>DEF | 
[V:2] A>GED | 
[V:3] !fermata!A4- | 
[V:4] A,,>B,,C,D, | 
[V:1] EF2E/D/ | 
[V:2] EDF2 | 
[V:3] A4- | 
[V:4] C,D,3/C,//B,,//D, | 
[V:1] !fermata!C4 ||  
[V:2] !fermata!E4 ||  
[V:3] A4 ||  
[V:4] !fermata!A,,4 ||  
[V:1] [M:2/2]z4 | 
[V:2] [M:2/2]c4 | 
[V:3] [M:2/2]z4 | 
[V:4] [M:2/2]A,4 | 
[V:1] z4 | 
[V:2] d2f2- | 
[V:3] A4 | 
[V:4] D,4 | 
[V:1] z4 | 
[V:2] fed2 | 
[V:3] D4 | 
[V:4] _B,,4 | 
[V:1] A4 | 
[V:2] c3A | 
[V:3] E2F2 | 
[V:4] A,,4 | 
[V:1] D4 | 
[V:2] B4 | 
[V:3] G4 | 
[V:4] G,,4 | 
[V:1] E2F2 | 
[V:2] B>cd2 | 
[V:3] G2A2 | 
[V:4] z2D,2 | 
[V:1] G4 | 
[V:2] B2c3/d/ | 
[V:3] G3F | 
[V:4] E,2C,2- | 
[V:1] G2A2 | 
[V:2] e2A2 | 
[V:3] E2D2 | 
[V:4] C,2F,2 | 
[V:1] G2F2 | 
[V:2] zc2B | 
[V:3] E2F2 | 
[V:4] E,C,D,2 | 
[V:1] E4- | 
[V:2] c4 | 
[V:3] G4 | 
[V:4] C,3D, | 
[V:1] E4 | 
[V:2] B3c | 
[V:3] z4 | 
[V:4] E,F,G,2 | 
[V:1] F3E/D/ | 
[V:2] d4 | 
[V:3] D4 | 
[V:4] A,4 | 
[V:1] C2E2 | 
[V:2] z2c2 | 
[V:3] E4 | 
[V:4] A,,4 | 
[V:1] D2DE- | 
[V:2] A2B2 | 
[V:3] F2G2 | 
[V:4] D,2B,,G,, | 
[V:1] EC2B, | 
[V:2] G4 | 
[V:3] E2D2 | 
[V:4] C,2G,,2 | 
[V:1] C4 | 
[V:2] E4 | 
[V:3] C4 | 
[V:4] G,4 | 
[V:1] D2E2 | 
[V:2] A2Gc- | 
[V:3] z2G2- | 
[V:4] F,2E,2 | 
[V:1] F4 | 
[V:2] cB/A/B2 | 
[V:3] G2F2 | 
[V:4] D,4 | 
[V:1] E4 | 
[V:2] c4 | 
[V:3] G4 | 
[V:4] C,4 | 
[V:1] F2D2 | 
[V:2] A2B2 | 
[V:3] F2G2 | 
[V:4] D,2B,,2 | 
[V:1] E2F2 | 
[V:2] c2A2 | 
[V:3] A2F2 | 
[V:4] A,,2D,2 | 
[V:1] E2D2- | 
[V:2] c2A2- | 
[V:3] G2F2 | 
[V:4] C,2D,2 | 
[V:1] D2^C2 | 
[V:2] A2A2 | 
[V:3] E4 | 
[V:4] A,,4 | 
[V:1] D4 | 
[V:2] F>G A/_B/A | 
[V:3] D4 | 
[V:4] z4 | 
[V:1] E3F- | 
[V:2] c>deA | 
[V:3] A4 | 
[V:4] A,,>B,,C,D,- | 
[V:1] F/G/A2G/F/ | 
[V:2] d2zd | 
[V:3] F4 | 
[V:4] D,/E,/F,D,2 | 
[V:1] EG>FE/D/ | 
[V:2] e2c2 | 
[V:3] G4 | 
[V:4] C,E,>D,C,/B,,/ | 
[V:1] Cc2B- | 
[V:2] zcd2 | 
[V:3] A2B2 | 
[V:4] A,,2G,,2 | 
[V:1] BA2^G | 
[V:2] ce3 | 
[V:3] c2B2 | 
[V:4] A,,2E,2 | 
[V:1] A2z2 | 
[V:2] c2B2 | 
[V:3] A2z2 | 
[V:4] A,,2G,,2 | 
[V:1] A2G2 | 
[V:2] AcBd | 
[V:3] z4 | 
[V:4] A,,2B,,2 | 
[V:1] A2B2 | 
[V:2] c/d/e/f/g2 | 
[V:3] A2G2 | 
[V:4] C,2B,,2 | 
[V:1] c2B2 | 
[V:2] c2zG | 
[V:3] A2B2 | 
[V:4] A,,2z2 | 
[V:1] A4 | 
[V:2] A/B/c/d/e2 | 
[V:3] c4 | 
[V:4] z4 | 
[V:1] d2c2 | 
[V:2] f2zf | 
[V:3] A4 | 
[V:4] D,2F,2 | 
[V:1] B2A2 | 
[V:2] dgef | 
[V:3] d2c2 | 
[V:4] G,2A,F, | 
[V:1] G2F2 | 
[V:2] d2zd | 
[V:3] B2A2 | 
[V:4] G,2D,2 | 
[V:1] G2E2 | 
[V:2] B2c2 | 
[V:3] G4 | 
[V:4] E,2C,2 | 
[V:1] D3_B, | 
[V:2] A2_B2 | 
[V:3] F2G2 | 
[V:4] D,2G,,2 | 
[V:1] C4- | 
[V:2] A4- | 
[V:3] E4- | 
[V:4] A,,4- | 
[V:1] C4 | 
[V:2] A4 | 
[V:3] E4 | 
[V:4] A,,4 | 
[V:1] D2C2 | 
[V:2] A2G2 | 
[V:3] z4 | 
[V:4] D,2E,2 | 
[V:1] D2E2 | 
[V:2] A2c2 | 
[V:3] D2C2 | 
[V:4] F,2G,2 | 
[V:1] F2G2- | 
[V:2] A>B c/d/e- | 
[V:3] D2E2 | 
[V:4] F,>E,C,2 | 
[V:1] GFE2- | 
[V:2] eBc3/d/ | 
[V:3] G4 | 
[V:4] E,2C,2 | 
[V:1] E2F2- | 
[V:2] e/d/c/B/A2 | 
[V:3] A4 | 
[V:4] A,,2D,2- | 
[V:1] FED2- | 
[V:2] F2G2 | 
[V:3] D4 | 
[V:4] D,C,_B,,2 | 
[V:1] D2^C2 | 
[V:2] A4 | 
[V:3] E4 | 
[V:4] A,,4 | 
[V:1] D4 | 
[V:2] F3D | 
[V:3] D4 | 
[V:4] z2A,2 | 
[V:1] A2_BA | 
[V:2] D4 | 
[V:3] d4 | 
[V:4] F,D,>E,F, | 
[V:1] _Bd2c/B/ | 
[V:2] z2G2 | 
[V:3] d4 | 
[V:4] G,2zG,, | 
[V:1] A2D2 | 
[V:2] E>FG2 | 
[V:3] c2B2 | 
[V:4] A,,2G,,B,, | 
[V:1] E2^F2 | 
[V:2] zAc2 | 
[V:3] c2A2 | 
[V:4] A,,>G,,A,,2 | 
[V:1] G>FDG | 
[V:2] d2dd | 
[V:3] B4 | 
[V:4] G,,2B,,2 | 
[V:1] AG/F/E2 | 
[V:2] e4 | 
[V:3] c4 | 
[V:4] A,,4 | 
[V:1] F4 | 
[V:2] z2A2 | 
[V:3] d4- | 
[V:4] D,4 | 
[V:1] z2A2- | 
[V:2] _B2A2 | 
[V:3] d4 | 
[V:4] G,2F,2 | 
[V:1] A2G2 | 
[V:2] d>cBc | 
[V:3] z4 | 
[V:4] D,2E,C, | 
[V:1] F2E2 | 
[V:2] Ad2^c | 
[V:3] z4 | 
[V:4] D,2A,2 | 
[V:1] D2F2 | 
[V:2] d>cA2 | 
[V:3] d4 | 
[V:4] _B,>A,F,3/G,/ | 
[V:1] E2G2 | 
[V:2] A/B/c/d/e2 | 
[V:3] c2B2 | 
[V:4] A,2E,2 | 
[V:1] Ac2B | 
[V:2] c>d e/f/g | 
[V:3] A2G2 | 
[V:4] F,2z2 | 
[V:1] Ac2B | 
[V:2] c>de2 | 
[V:3] A2G2 | 
[V:4] F,2E,2 | 
[V:1] A3G/F/ | 
[V:2] cA2B | 
[V:3] F4 | 
[V:4] F,2D,2 | 
[V:1] EF2E | 
[V:2] c4 | 
[V:3] G4 | 
[V:4] C,4 | 
[V:1] F4- | 
[V:2] A4- | 
[V:3] F4- | 
[V:4] D,4- | 
[V:1] F2A2 | 
[V:2] A4 | 
[V:3] F4 | 
[V:4] D,4 | 
[V:1] GF/E/D2 | 
[V:2] D4 | 
[V:3] G4 | 
[V:4] _B,,4 | 
[V:1] C2C2 | 
[V:2] E2E2 | 
[V:3] A2A2 | 
[V:4] A,,2A,,2 | 
[V:1] C4 | 
[V:2] E4 | 
[V:3] A4 | 
[V:4] A,,4 | 
[V:1] z2D2- | 
[V:2] G4 | 
[V:3] D4 | 
[V:4] G,,4 | 
[V:1] D2D2 | 
[V:2] A2Bd- | 
[V:3] F2G2 | 
[V:4] D,2B,,2 | 
[V:1] E2G2 | 
[V:2] dc2B | 
[V:3] E2D2 | 
[V:4] C,2G,,2 | 
[V:1] E4 | 
[V:2] c4 | 
[V:3] C4 | 
[V:4] A,,4 | 
[V:1] z4 | 
[V:2] A2c2 | 
[V:3] D2C2 | 
[V:4] z4 | 
[V:1] D2C2 | 
[V:2] F2A2 | 
[V:3] D2E2 | 
[V:4] D,2A,,2 | 
[V:1] D2E2 | 
[V:2] A>Bc2 | 
[V:3] F2G2- | 
[V:4] D,2C,2 | 
[V:1] G4 | 
[V:2] B2^c2 | 
[V:3] GFE2 | 
[V:4] E,4 | 
[V:1] F4 | 
[V:2] d4 | 
[V:3] D2A2- | 
[V:4] F,2D,2 | 
[V:1] E2F2 | 
[V:2] e2d2 | 
[V:3] A4 | 
[V:4] C,2D,2 | 
[V:1] E2D2- | 
[V:2] BcA2- | 
[V:3] G2F2 | 
[V:4] E,C,D,2 | 
[V:1] D^C/B,/C2 | 
[V:2] A4 | 
[V:3] E4 | 
[V:4] A,,4 | 
[V:1] D4 | 
[V:2] F3D | 
[V:3] D4- | 
[V:4] A,4 | 
[V:1] A4 | 
[V:2] D4 | 
[V:3] D4 | 
[V:4] F,2D,2- | 
[V:1] B4 | 
[V:2] d4 | 
[V:3] z4 | 
[V:4] D,C,B,,2 | 
[V:1] c4 | 
[V:2] e4 | 
[V:3] A4 | 
[V:4] A,,4 | 
[V:1] d>c B/A/G- | 
[V:2] d2g3/f/ | 
[V:3] B4 | 
[V:4] z2G,,2 | 
[V:1] G/F/E/D/E2 | 
[V:2] e/d<cd/e | 
[V:3] c4 | 
[V:4] C,>B,,A,,2 | 
[V:1] D2A2 | 
[V:2] A3F | 
[V:3] d4 | 
[V:4] D,2D,2 | 
[V:1] Bd2c | 
[V:2] G2E2 | 
[V:3] d2e2 | 
[V:4] G,,2zC,- | 
[V:1] AB>cA- | 
[V:2] zG2E- | 
[V:3] d2c2 | 
[V:4] C,G,,2A,, | 
[V:1] AG/F/ G/F/E/D/ | 
[V:2] Ee3 | 
[V:3] B4 | 
[V:4] E,4 | 
[V:1] C4 | 
[V:2] cB/A/G2 | 
[V:3] A2c2 | 
[V:4] F,2E,2 | 
[V:1] z2A2 | 
[V:2] F2E2- | 
[V:3] B2A2- | 
[V:4] D,2C,2 | 
[V:1] B4 | 
[V:2] E2D2 | 
[V:3] A^G/^F/^G2 | 
[V:4] B,,4 | 
[V:1] c2A2 | 
[V:2] E4 | 
[V:3] A4 | 
[V:4] A,,4 | 
[V:1] G2F2 | 
[V:2] G2A3/B/ | 
[V:3] z4 | 
[V:4] E,2D,2 | 
[V:1] E3F- | 
[V:2] c4- | 
[V:3] A4 | 
[V:4] C,2A,,2 | 
[V:1] FE2D | 
[V:2] c2A2 | 
[V:3] G2F2 | 
[V:4] C,2D,2 | 
[V:1] E4 | 
[V:2] c>de2- | 
[V:3] E4 | 
[V:4] A,,4 | 
[V:1] z2A2- | 
[V:2] edd2- | 
[V:3] F4 | 
[V:4] D,4 | 
[V:1] A2G2 | 
[V:2] d2^c2 | 
[V:3] E4 | 
[V:4] z4 | 
[V:1] F2D2 | 
[V:2] d4 | 
[V:3] D2d2- | 
[V:4] z2D,2 | 
[V:1] E4 | 
[V:2] z2A2- | 
[V:3] d2^c2 | 
[V:4] A,4 | 
[V:1] D4 | 
[V:2] A2_B2 | 
[V:3] d4- | 
[V:4] D,2G,2 | 
[V:1] F4 | 
[V:2] A4 | 
[V:3] d4 | 
[V:4] F,2D,2 | 
[V:1] G4 | 
[V:2] z2B2 | 
[V:3] z4 | 
[V:4] E,4 | 
[V:1] A4 | 
[V:2] c4 | 
[V:3] F4 | 
[V:4] z2A,,2 | 
[V:1] D4 | 
[V:2] d2B2 | 
[V:3] G4 | 
[V:4] B,,4 | 
[V:1] C2F2- | 
[V:2] e2d2 | 
[V:3] A4 | 
[V:4] A,,2D,2- | 
[V:1] FGA2- | 
[V:2] A4 | 
[V:3] D4 | 
[V:4] D,E,F,2 | 
[V:1] AGFE | 
[V:2] d4- | 
[V:3] F4 | 
[V:4] D,4 | 
[V:1] D2G2- | 
[V:2] d4- | 
[V:3] G4 | 
[V:4] _B,,2G,,2 | 
[V:1] G2^F2 | 
[V:2] d4 | 
[V:3] A4 | 
[V:4] D,4 | 
[V:1] G2E2- | 
[V:2] B2c2- | 
[V:3] G4- | 
[V:4] E,2C,2- | 
[V:1] EDD2- | 
[V:2] c2A2- | 
[V:3] G2F2 | 
[V:4] C,2D,2 | 
[V:1] D2^C2 | 
[V:2] A4 | 
[V:3] E4 | 
[V:4] A,,4 | 
[V:1] D4 |]  
[V:2] F4 |]  
[V:3] D4 |]  
[V:4] D,4 |]  


